X: 27
M:6/8
L:1/8
K:G
|:d|edd gdd|edB c2 d|edc BcA|AGE E2 d|
edd gdd|edB c2 d|edc BcA|AGG G2:||

